src/categories-icons-sprite/categories/svg-cat-prod.svg

<svg width="37" height="37" viewBox="0 0 37 37" fill="none" xmlns="http://www.w3.org/2000/svg">
<path class="p-61D7A8" d="M34.832 20.2598C34.832 21.2136 34.5718 22.146 34.1164 22.9697H15.9636C15.5083 22.146 15.248 21.2136 15.248 20.2598C15.248 18.0483 16.5923 16.1406 18.5 15.3166C18.8684 15.1216 19.2588 15.0132 19.6706 14.9265C20.1477 12.4116 22.3592 10.5039 25.0039 10.5039C27.6487 10.5039 29.8601 12.4116 30.3372 14.9265C32.8521 15.4036 34.832 17.6147 34.832 20.2598Z" fill="#B9DFFC"/>
<path class="p-00AB94" d="M34.1164 22.9697H18.5V15.3166C18.8684 15.1216 19.2588 15.0132 19.6706 14.9265C20.1477 12.4116 22.3592 10.5039 25.0039 10.5039C27.6487 10.5039 29.8601 12.4116 30.3372 14.9265C32.8521 15.4036 34.832 17.6147 34.832 20.2598C34.832 21.2136 34.5718 22.146 34.1164 22.9697Z" fill="#58ADE5"/>
<path class="p-61D7A8" d="M6.73792 18.569L5.58817 15.6531L3.8871 18.3542L1.58787 16.0549C0.564293 15.0322 0 13.671 0 12.2229C0 10.7747 0.564293 9.41328 1.58787 8.39083C3.63304 6.34368 7.20483 6.34368 9.25198 8.39083L11.5512 10.6901L8.85014 12.3911L11.766 13.5409L6.73792 18.569Z" fill="#65B3E7"/>
<path class="p-FF9100" d="M23.595 5.5827C22.229 4.21699 20.2782 3.73992 18.5003 4.15206C17.5682 4.36858 16.6575 4.84564 15.9422 5.5827C13.8174 7.70719 13.8174 11.1328 15.9422 13.2572L16.7007 14.016L24.3756 6.36322L23.595 5.5827Z" fill="#58ADE5"/>
<path class="p-FFD396" d="M9.50684 3.58496L11.3272 4.76233L10.1499 6.58274L8.32946 5.40537L9.50684 3.58496Z" fill="#5FBEFF"/>
<path class="p-FFD396" d="M11.7627 16.5767L13.5112 17.8583L12.2295 19.6069L10.481 18.3252L11.7627 16.5767Z" fill="#5FBEFF"/>
<path class="p-009184" d="M28.6904 18.3089L26.0883 20.2603V15.9238H23.9203V20.2603L21.3182 18.3089L20.0186 20.0427L24.3545 23.2946H25.6541L29.9901 20.0427L28.6904 18.3089Z" fill="#4D98CB"/>
<path class="p-FFB64C" d="M32.748 6.67188C30.955 6.67188 29.4238 5.21301 29.4238 3.41992C29.4238 1.62683 30.955 0.167969 32.748 0.167969C34.5411 0.167969 36 1.62683 36 3.41992C36 5.21301 34.5411 6.67188 32.748 6.67188Z" fill="#4D98CB"/>
<path class="p-FF641A" d="M24.3753 6.36322L18.5 12.2167V4.15206C20.2778 3.73992 22.2287 4.21699 23.5947 5.5827L24.3753 6.36322Z" fill="#4D98CB"/>
<path class="p-C5D3DD" d="M37 21.3438V22.4277C37 23.5335 36.8481 24.6174 36.6099 25.6797L32.6641 27.8477H4.4082L0.390121 25.6797C0.151871 24.6174 0 23.5335 0 22.4277V21.3438H37Z" fill="#A1D1FD"/>
<path class="p-9FACBA" d="M37 21.3438V22.4277C37 23.5335 36.8481 24.6174 36.6099 25.6797L32.6641 27.8477H18.5V21.3438H37Z" fill="#5FBEFF"/>
<path class="p-DEECF1" d="M36.6094 25.6797C34.8316 33.8962 28.6238 36.3101 28.2554 36.5918H8.74367C8.39674 36.3101 2.1675 33.8528 0.389648 25.6797H36.6094Z" fill="#B9DFFC"/>
<path class="p-C5D3DD" d="M36.6099 25.6797C34.832 33.8962 28.6242 36.3101 28.2559 36.5918H18.5V25.6797H36.6099Z" fill="#58ADE5"/>
</svg>

<svg width="37" height="37" fill="none" xmlns="http://www.w3.org/2000/svg"><path class="p-61D7A8" d="M34.832 20.26c0 .954-.26 1.886-.716 2.71H15.964a5.62 5.62 0 01-.716-2.71 5.394 5.394 0 013.252-4.943c.368-.195.759-.304 1.17-.39.478-2.515 2.69-4.423 5.334-4.423 2.645 0 4.856 1.908 5.333 4.423 2.515.477 4.495 2.688 4.495 5.333z" fill="#B9DFFC"/><path class="p-00AB94" d="M34.116 22.97H18.5v-7.653c.368-.195.759-.304 1.17-.39.478-2.515 2.69-4.423 5.334-4.423 2.645 0 4.856 1.908 5.333 4.423 2.515.477 4.495 2.688 4.495 5.333 0 .954-.26 1.886-.716 2.71z" fill="#58ADE5"/><path class="p-61D7A8" d="M6.738 18.569l-1.15-2.916-1.7 2.701-2.3-2.3A5.382 5.382 0 010 12.224c0-1.448.564-2.81 1.588-3.832 2.045-2.047 5.617-2.047 7.664 0l2.3 2.3-2.702 1.7 2.916 1.15-5.028 5.028z" fill="#65B3E7"/><path class="p-FF9100" d="M23.595 5.583c-1.366-1.366-3.317-1.843-5.095-1.43a5.216 5.216 0 00-2.558 1.43 5.417 5.417 0 000 7.674l.759.759 7.675-7.653-.781-.78z" fill="#58ADE5"/><path class="p-FFD396" d="M9.507 3.585l1.82 1.177-1.177 1.82-1.82-1.177 1.177-1.82zM11.763 16.577l1.748 1.281-1.281 1.749-1.749-1.282 1.282-1.748z" fill="#5FBEFF"/><path class="p-009184" d="M28.69 18.309l-2.602 1.951v-4.336H23.92v4.336l-2.602-1.951-1.3 1.734 4.337 3.252h1.3l4.335-3.252-1.3-1.734z" fill="#4D98CB"/><path class="p-FFB64C" d="M32.748 6.672c-1.793 0-3.324-1.459-3.324-3.252 0-1.793 1.531-3.252 3.324-3.252A3.256 3.256 0 0136 3.42a3.256 3.256 0 01-3.252 3.252z" fill="#4D98CB"/><path class="p-FF641A" d="M24.375 6.363L18.5 12.217V4.152c1.778-.412 3.729.065 5.095 1.43l.78.781z" fill="#4D98CB"/><path class="p-C5D3DD" d="M37 21.344v1.084c0 1.105-.152 2.19-.39 3.252l-3.946 2.168H4.408L.39 25.68C.152 24.617 0 23.534 0 22.428v-1.084h37z" fill="#A1D1FD"/><path class="p-9FACBA" d="M37 21.344v1.084c0 1.105-.152 2.19-.39 3.252l-3.946 2.168H18.5v-6.504H37z" fill="#5FBEFF"/><path class="p-DEECF1" d="M36.61 25.68c-1.778 8.216-7.986 10.63-8.355 10.912H8.744C8.397 36.31 2.168 33.852.39 25.68h36.22z" fill="#B9DFFC"/><path class="p-C5D3DD" d="M36.61 25.68c-1.778 8.216-7.986 10.63-8.354 10.912H18.5V25.68h18.11z" fill="#58ADE5"/></svg>
